X:1
T: The Banks of Boggie
C:Alexander Walker
R:Reel
Q:232
K:D
M:4/4
L:1/8
|:D|A,DD2 F2DF|GE FD EA, CA,|A,DD2 F2DF|GB Ac dD DD|
A,DD2 F2DF|GE FD EA, CA,|A,DD2 F2DF|GB Ac dD Dg|
fd Ad Fd Ad|Ge Fd e2eg|fd Ad Fd Ad|EA, CA, D2Dg|
fd Ad Fd Ad|Ge Fd e2eg|fa ef dB AF|GB Ac dD D:|
